src/apps/symbolic/com.uploadedlobster.peek-symbolic.svg

<svg width="16" height="16" version="1.1" viewBox="0 0 16 16" xmlns="http://www.w3.org/2000/svg">
 <path d="m2 2v5h1v-4h4v-1h-5zm7 0v1h4v4h1v-5h-5zm-7 7v5h5v-1h-4v-4h-1zm11 0v4h-4v1h5v-5h-1z" fill="#363636"/>
 <circle cx="8" cy="8" r="2" fill="#363636" fill-rule="evenodd" stop-color="#000000" stroke-linecap="round" stroke-linejoin="round" stroke-width="2" style="paint-order:stroke fill markers"/>
</svg>

<svg xmlns="http://www.w3.org/2000/svg" width="16" height="16">
    <path fill="#050505" fill-opacity=".7" d="M2 2v5h1V3h4V2H2zm7 0v1h4v4h1V2H9zM2 9v5h5v-1H3V9H2zm11 0v4H9v1h5V9h-1z"/>
    <circle cx="8" cy="8" r="2" fill="#050505" fill-opacity=".7" fill-rule="evenodd" style="paint-order:stroke fill markers"/>
</svg>
